assets/img/icon_search.svg

<svg width="78" height="78" viewBox="0 0 78 78" version="1.1" xmlns="http://www.w3.org/2000/svg" xmlns:xlink="http://www.w3.org/1999/xlink">
<title>icon_search</title>
<desc>Created using Figma</desc>
<g id="Canvas" transform="translate(-2527 -2389)">
<g id="icon_search">
<g id="Ellipse">
<use xlink:href="#path0_fill" transform="translate(2527 2389)" fill="#FFFFFF"/>
</g>
<g id="002-analytics">
<g id="Group">
<g id="Group">
<g id="Vector">
<use xlink:href="#path1_fill" transform="translate(2555.43 2417.43)" fill="url(#paint1_linear)"/>
</g>
</g>
</g>
<g id="Group">
<g id="Group">
<g id="Vector">
<use xlink:href="#path2_fill" transform="translate(2552.15 2414.15)" fill="url(#paint2_linear)"/>
</g>
<g id="Vector">
<use xlink:href="#path3_fill" transform="translate(2555.89 2418.51)" fill="url(#paint3_linear)"/>
</g>
</g>
</g>
<g id="Group">
<g id="Group">
<g id="Vector">
<use xlink:href="#path4_fill" transform="translate(2548.04 2423.18)" fill="url(#paint4_linear)"/>
</g>
</g>
</g>
<g id="Group">
<g id="Group">
<g id="Vector">
<use xlink:href="#path5_fill" transform="translate(2558.72 2421.54)" fill="url(#paint5_linear)"/>
</g>
</g>
</g>
<g id="Group">
<g id="Group">
<g id="Vector">
<use xlink:href="#path6_fill" transform="translate(2580.89 2423.18)" fill="url(#paint6_linear)"/>
</g>
</g>
</g>
<g id="Group">
<g id="Group">
<g id="Vector">
<use xlink:href="#path7_fill" transform="translate(2561.18 2431.39)" fill="url(#paint7_linear)"/>
</g>
</g>
</g>
<g id="Group">
<g id="Group">
<g id="Vector">
<use xlink:href="#path8_fill" transform="translate(2580.89 2433.03)" fill="url(#paint8_linear)"/>
</g>
</g>
</g>
<g id="Group">
<g id="Group">
<g id="Vector">
<use xlink:href="#path9_fill" transform="translate(2547.22 2443.71)" fill="url(#paint9_linear)"/>
</g>
</g>
</g>
<g id="Group">
<g id="Group">
<g id="Vector">
<use xlink:href="#path10_fill" transform="translate(2572.67 2409.22)" fill="url(#paint10_linear)"/>
</g>
</g>
</g>
</g>
</g>
</g>
<defs>
<linearGradient id="paint1_linear" x1="0" y1="0" x2="1" y2="0" gradientUnits="userSpaceOnUse" gradientTransform="matrix(22.6134 14.1427 -10.8869 248.606 10.4367 -106.846)">
<stop offset="0" stop-color="#B721FF"/>
<stop offset="0.469613" stop-color="#C850C0"/>
<stop offset="1" stop-color="#FFCC70"/>
</linearGradient>
<linearGradient id="paint2_linear" x1="0" y1="0" x2="1" y2="0" gradientUnits="userSpaceOnUse" gradientTransform="matrix(34.0984 21.2393 -16.4161 373.352 15.7373 -160.461)">
<stop offset="0" stop-color="#B721FF"/>
<stop offset="0.469613" stop-color="#C850C0"/>
<stop offset="1" stop-color="#FFCC70"/>
</linearGradient>
<linearGradient id="paint3_linear" x1="0" y1="0" x2="1" y2="0" gradientUnits="userSpaceOnUse" gradientTransform="matrix(20.9173 13.1325 -10.0703 230.848 9.65389 -99.2147)">
<stop offset="0" stop-color="#B721FF"/>
<stop offset="0.469613" stop-color="#C850C0"/>
<stop offset="1" stop-color="#FFCC70"/>
</linearGradient>
<linearGradient id="paint4_linear" x1="0" y1="0" x2="1" y2="0" gradientUnits="userSpaceOnUse" gradientTransform="matrix(4.54123 0.771405 -2.1863 13.56 2.0959 -5.82786)">
<stop offset="0" stop-color="#B721FF"/>
<stop offset="0.469613" stop-color="#C850C0"/>
<stop offset="1" stop-color="#FFCC70"/>
</linearGradient>
<linearGradient id="paint5_linear" x1="0" y1="0" x2="1" y2="0" gradientUnits="userSpaceOnUse" gradientTransform="matrix(16.1007 2.82855 -7.75145 49.7212 7.43094 -21.3693)">
<stop offset="0" stop-color="#B721FF"/>
<stop offset="0.469613" stop-color="#C850C0"/>
<stop offset="1" stop-color="#FFCC70"/>
</linearGradient>
<linearGradient id="paint6_linear" x1="0" y1="0" x2="1" y2="0" gradientUnits="userSpaceOnUse" gradientTransform="matrix(3.71555 0.771405 -1.78879 13.56 1.71483 -5.82786)">
<stop offset="0" stop-color="#B721FF"/>
<stop offset="0.469613" stop-color="#C850C0"/>
<stop offset="1" stop-color="#FFCC70"/>
</linearGradient>
<linearGradient id="paint7_linear" x1="0" y1="0" x2="1" y2="0" gradientUnits="userSpaceOnUse" gradientTransform="matrix(13.6236 2.82855 -6.55887 49.7212 6.28767 -21.3693)">
<stop offset="0" stop-color="#B721FF"/>
<stop offset="0.469613" stop-color="#C850C0"/>
<stop offset="1" stop-color="#FFCC70"/>
</linearGradient>
<linearGradient id="paint8_linear" x1="0" y1="0" x2="1" y2="0" gradientUnits="userSpaceOnUse" gradientTransform="matrix(2.88986 0.771405 -1.39128 13.56 1.33375 -5.82786)">
<stop offset="0" stop-color="#B721FF"/>
<stop offset="0.469613" stop-color="#C850C0"/>
<stop offset="1" stop-color="#FFCC70"/>
</linearGradient>
<linearGradient id="paint9_linear" x1="0" y1="0" x2="1" y2="0" gradientUnits="userSpaceOnUse" gradientTransform="matrix(15.2751 2.82855 -7.35397 49.7212 7.0499 -21.3693)">
<stop offset="0" stop-color="#B721FF"/>
<stop offset="0.469613" stop-color="#C850C0"/>
<stop offset="1" stop-color="#FFCC70"/>
</linearGradient>
<linearGradient id="paint10_linear" x1="0" y1="0" x2="1" y2="0" gradientUnits="userSpaceOnUse" gradientTransform="matrix(13.6237 3.85712 -6.55891 67.8017 6.28771 -29.14)">
<stop offset="0" stop-color="#B721FF"/>
<stop offset="0.469613" stop-color="#C850C0"/>
<stop offset="1" stop-color="#FFCC70"/>
</linearGradient>
<path id="path0_fill" d="M 78 39C 78 60.5391 60.5391 78 39 78C 17.4609 78 0 60.5391 0 39C 0 17.4609 17.4609 0 39 0C 60.5391 0 78 17.4609 78 39Z"/>
<path id="path1_fill" d="M 21.8436 12.2692L 21.8428 12.2692C 21.5394 12.2692 21.2802 12.4903 21.2351 12.7902C 20.4986 17.6912 16.2134 21.4461 11.0878 21.3452C 5.79031 21.241 1.44471 16.9822 1.23935 11.6876C 1.01708 5.96104 5.61131 1.23145 11.2895 1.23145C 16.3883 1.23145 20.6131 5.04538 21.261 9.97027C 21.3011 10.2749 21.563 10.5013 21.8702 10.5013C 22.2412 10.5013 22.5298 10.1752 22.4813 9.80742C 21.7495 4.25083 16.9617 -0.045492 11.1983 0.000363465C 4.96941 0.049799 -0.0760651 5.20229 0.000868467 11.4309C 0.0769642 17.591 5.11177 22.5788 11.2895 22.5788C 16.9435 22.5788 21.6392 18.4009 22.4533 12.9702C 22.5087 12.6004 22.2175 12.2692 21.8436 12.2692Z"/>
<path id="path2_fill" d="M 33.0069 28.6525L 26.8201 22.4658C 28.2918 20.1898 29.1474 17.4798 29.1474 14.5737C 29.1474 6.53768 22.6097 2.32458e-07 14.5737 2.32458e-07C 6.53776 2.32458e-07 2.74301e-07 6.5376 2.74301e-07 14.5736C 2.74301e-07 22.6096 6.53768 29.1472 14.5737 29.1472C 17.4798 29.1472 20.1898 28.2917 22.4658 26.82L 28.6525 33.0067C 29.2341 33.5883 30.0072 33.9086 30.8296 33.9086C 31.652 33.9086 32.4252 33.5883 33.0068 33.0067C 34.2073 31.8063 34.2073 29.853 33.0069 28.6525ZM 14.5737 27.9157C 7.21675 27.9157 1.23155 21.9305 1.23155 14.5736C 1.23155 7.21668 7.21675 1.23147 14.5737 1.23147C 21.9306 1.23147 27.9158 7.21668 27.9158 14.5736C 27.9158 21.9305 21.9306 27.9157 14.5737 27.9157ZM 32.136 32.1359C 31.7871 32.4849 31.3232 32.677 30.8297 32.677C 30.3363 32.677 29.8724 32.4848 29.5235 32.1359L 23.4848 26.0972C 24.4618 25.34 25.3401 24.4616 26.0974 23.4846L 32.1361 29.5233C 32.8562 30.2436 32.8562 31.4156 32.136 32.1359Z"/>
<path id="path3_fill" d="M 10.4 20.9661C 16.1438 20.9661 20.8 16.2727 20.8 10.483C 20.8 4.69342 16.1438 0 10.4 0C 4.65624 0 0 4.69342 0 10.483C 0 16.2727 4.65624 20.9661 10.4 20.9661Z"/>
<path id="path4_fill" d="M 3.9 3.3474e-07L 0.615773 3.3474e-07C 0.275666 3.3474e-07 2.15024e-08 0.275743 2.15024e-08 0.615774C 2.15024e-08 0.955881 0.275742 1.23155 0.615773 1.23155L 3.9 1.23155C 4.24011 1.23155 4.51577 0.955805 4.51577 0.615774C 4.51577 0.275743 4.24011 3.3474e-07 3.9 3.3474e-07Z"/>
<path id="path5_fill" d="M 15.3947 1.64211L 11.8192 1.64211C 11.5504 0.695602 10.6788 4.37021e-07 9.6474 4.37021e-07C 8.61588 4.37021e-07 7.74439 0.695602 7.47551 1.64211L 0.615773 1.64211C 0.275666 1.64211 -9.29832e-08 1.91786 -9.29832e-08 2.25789C -9.29832e-08 2.59799 0.275742 2.87366 0.615773 2.87366L 7.47551 2.87366C 7.74432 3.82017 8.61588 4.51577 9.6474 4.51577C 10.6789 4.51577 11.5504 3.82017 11.8192 2.87366L 15.3947 2.87366C 15.7348 2.87366 16.0105 2.59792 16.0105 2.25789C 16.0106 1.91786 15.7348 1.64211 15.3947 1.64211ZM 9.6474 3.28423C 9.08144 3.28423 8.62106 2.82384 8.62106 2.25789C 8.62106 1.69193 9.08144 1.23155 9.6474 1.23155C 10.2134 1.23155 10.6737 1.69193 10.6737 2.25789C 10.6737 2.82384 10.2134 3.28423 9.6474 3.28423Z"/>
<path id="path6_fill" d="M 3.07894 3.3474e-07L 0.615773 3.3474e-07C 0.275666 3.3474e-07 8.92639e-07 0.275743 8.92639e-07 0.615774C 8.92639e-07 0.955881 0.275742 1.23155 0.615773 1.23155L 3.07894 1.23155C 3.41905 1.23155 3.69472 0.955805 3.69472 0.615774C 3.69472 0.275743 3.41905 3.3474e-07 3.07894 3.3474e-07Z"/>
<path id="path7_fill" d="M 12.9315 1.64211L 4.4297 1.64211C 4.16089 0.695601 3.28933 4.4632e-07 2.25789 4.4632e-07C 1.01286 4.4632e-07 -2.88248e-07 1.01286 -2.88248e-07 2.25789C -2.88248e-07 3.50292 1.01286 4.51577 2.25789 4.51577C 3.28941 4.51577 4.16089 3.82017 4.4297 2.87366L 12.9315 2.87366C 13.2716 2.87366 13.5472 2.59792 13.5472 2.25789C 13.5473 1.91786 13.2716 1.64211 12.9315 1.64211ZM 2.25781 3.28423C 1.69185 3.28423 1.23147 2.82384 1.23147 2.25789C 1.23147 1.69193 1.69185 1.23155 2.25781 1.23155C 2.82377 1.23155 3.28415 1.69193 3.28415 2.25789C 3.28415 2.82384 2.82377 3.28423 2.25781 3.28423Z"/>
<path id="path8_fill" d="M 2.25789 -8.18253e-07L 0.615773 -8.18253e-07C 0.275666 -8.18253e-07 8.92639e-07 0.275743 8.92639e-07 0.615774C 8.92639e-07 0.955881 0.275742 1.23155 0.615773 1.23155L 2.25789 1.23155C 2.598 1.23155 2.87366 0.955805 2.87366 0.615774C 2.87366 0.275743 2.598 -8.18253e-07 2.25789 -8.18253e-07Z"/>
<path id="path9_fill" d="M 14.5737 1.64211L 4.42978 1.64211C 4.16096 0.695601 3.28941 2.60353e-07 2.25789 2.60353e-07C 1.01286 2.60353e-07 0 1.01286 0 2.25789C 0 3.50292 1.01286 4.51577 2.25789 4.51577C 3.28941 4.51577 4.16089 3.82017 4.42978 2.87366L 14.5737 2.87366C 14.9138 2.87366 15.1895 2.59792 15.1895 2.25789C 15.1895 1.91778 14.9138 1.64211 14.5737 1.64211ZM 2.25789 3.28423C 1.69193 3.28423 1.23155 2.82384 1.23155 2.25789C 1.23155 1.69193 1.69193 1.23155 2.25789 1.23155C 2.82384 1.23155 3.28423 1.69193 3.28423 2.25789C 3.28423 2.82384 2.82384 3.28423 2.25789 3.28423Z"/>
<path id="path10_fill" d="M 10.4684 0C 8.98143 0 7.73746 1.05947 7.45144 2.46317L 0.615773 2.46317C 0.275666 2.46317 7.81059e-07 2.73891 7.81059e-07 3.07894C 7.81059e-07 3.41905 0.275742 3.69472 0.615773 3.69472L 7.45144 3.69472C 7.73746 5.09841 8.9815 6.15789 10.4684 6.15789C 12.1662 6.15789 13.5473 4.77674 13.5473 3.07894C 13.5473 1.38115 12.1662 0 10.4684 0ZM 10.4684 4.92634C 9.44973 4.92634 8.62098 4.09767 8.62098 3.07894C 8.62098 2.0603 9.44966 1.23155 10.4684 1.23155C 11.487 1.23155 12.3158 2.06022 12.3158 3.07894C 12.3158 4.09759 11.487 4.92634 10.4684 4.92634Z"/>
</defs>
</svg>

<svg width="78" height="78" xmlns="http://www.w3.org/2000/svg" xmlns:xlink="http://www.w3.org/1999/xlink"><use xlink:href="#path0_fill" fill="#FFF"/><use xlink:href="#path1_fill" transform="translate(28.43 28.43)" fill="url(#paint1_linear)"/><use xlink:href="#path2_fill" transform="translate(25.15 25.15)" fill="url(#paint2_linear)"/><use xlink:href="#path3_fill" transform="translate(28.89 29.51)" fill="url(#paint3_linear)"/><use xlink:href="#path4_fill" transform="translate(21.04 34.18)" fill="url(#paint4_linear)"/><use xlink:href="#path5_fill" transform="translate(31.72 32.54)" fill="url(#paint5_linear)"/><use xlink:href="#path6_fill" transform="translate(53.89 34.18)" fill="url(#paint6_linear)"/><use xlink:href="#path7_fill" transform="translate(34.18 42.39)" fill="url(#paint7_linear)"/><use xlink:href="#path8_fill" transform="translate(53.89 44.03)" fill="url(#paint8_linear)"/><use xlink:href="#path9_fill" transform="translate(20.22 54.71)" fill="url(#paint9_linear)"/><use xlink:href="#path10_fill" transform="translate(45.67 20.22)" fill="url(#paint10_linear)"/><defs><linearGradient id="paint1_linear" x2="1" gradientUnits="userSpaceOnUse" gradientTransform="matrix(22.6134 14.1427 -10.8869 248.606 10.437 -106.846)"><stop offset="0" stop-color="#B721FF"/><stop offset=".47" stop-color="#C850C0"/><stop offset="1" stop-color="#FFCC70"/></linearGradient><linearGradient id="paint2_linear" x2="1" gradientUnits="userSpaceOnUse" gradientTransform="matrix(34.0984 21.2393 -16.4161 373.352 15.737 -160.461)"><stop offset="0" stop-color="#B721FF"/><stop offset=".47" stop-color="#C850C0"/><stop offset="1" stop-color="#FFCC70"/></linearGradient><linearGradient id="paint3_linear" x2="1" gradientUnits="userSpaceOnUse" gradientTransform="matrix(20.9173 13.1325 -10.0703 230.848 9.654 -99.215)"><stop offset="0" stop-color="#B721FF"/><stop offset=".47" stop-color="#C850C0"/><stop offset="1" stop-color="#FFCC70"/></linearGradient><linearGradient id="paint4_linear" x2="1" gradientUnits="userSpaceOnUse" gradientTransform="matrix(4.54123 .7714 -2.1863 13.56 2.096 -5.828)"><stop offset="0" stop-color="#B721FF"/><stop offset=".47" stop-color="#C850C0"/><stop offset="1" stop-color="#FFCC70"/></linearGradient><linearGradient id="paint5_linear" x2="1" gradientUnits="userSpaceOnUse" gradientTransform="matrix(16.1007 2.82855 -7.75145 49.7212 7.43 -21.37)"><stop offset="0" stop-color="#B721FF"/><stop offset=".47" stop-color="#C850C0"/><stop offset="1" stop-color="#FFCC70"/></linearGradient><linearGradient id="paint6_linear" x2="1" gradientUnits="userSpaceOnUse" gradientTransform="matrix(3.71555 .7714 -1.78879 13.56 1.715 -5.828)"><stop offset="0" stop-color="#B721FF"/><stop offset=".47" stop-color="#C850C0"/><stop offset="1" stop-color="#FFCC70"/></linearGradient><linearGradient id="paint7_linear" x2="1" gradientUnits="userSpaceOnUse" gradientTransform="matrix(13.6236 2.82855 -6.55887 49.7212 6.288 -21.37)"><stop offset="0" stop-color="#B721FF"/><stop offset=".47" stop-color="#C850C0"/><stop offset="1" stop-color="#FFCC70"/></linearGradient><linearGradient id="paint8_linear" x2="1" gradientUnits="userSpaceOnUse" gradientTransform="matrix(2.88986 .7714 -1.39128 13.56 1.334 -5.828)"><stop offset="0" stop-color="#B721FF"/><stop offset=".47" stop-color="#C850C0"/><stop offset="1" stop-color="#FFCC70"/></linearGradient><linearGradient id="paint9_linear" x2="1" gradientUnits="userSpaceOnUse" gradientTransform="matrix(15.2751 2.82855 -7.35397 49.7212 7.05 -21.37)"><stop offset="0" stop-color="#B721FF"/><stop offset=".47" stop-color="#C850C0"/><stop offset="1" stop-color="#FFCC70"/></linearGradient><linearGradient id="paint10_linear" x2="1" gradientUnits="userSpaceOnUse" gradientTransform="matrix(13.6237 3.85712 -6.55891 67.8017 6.288 -29.14)"><stop offset="0" stop-color="#B721FF"/><stop offset=".47" stop-color="#C850C0"/><stop offset="1" stop-color="#FFCC70"/></linearGradient><path id="path0_fill" d="M78 39c0 21.54-17.46 39-39 39S0 60.54 0 39 17.46 0 39 0s39 17.46 39 39z"/><path id="path1_fill" d="M21.844 12.27h-.001a.614.614 0 0 0-.608.52c-.736 4.901-5.022 8.656-10.147 8.555-5.298-.104-9.643-4.363-9.849-9.657C1.017 5.96 5.611 1.23 11.29 1.23c5.1 0 9.324 3.814 9.972 8.74a.615.615 0 1 0 1.22-.163C21.75 4.25 16.961-.046 11.198 0 4.97.05-.076 5.202.001 11.43.077 17.592 5.11 22.58 11.29 22.58c5.654 0 10.35-4.178 11.163-9.609a.614.614 0 0 0-.61-.7z"/><path id="path2_fill" d="M33.007 28.652l-6.187-6.186a14.489 14.489 0 0 0 2.327-7.892C29.147 6.538 22.61 0 14.574 0 6.538 0 0 6.538 0 14.574s6.538 14.573 14.574 14.573c2.906 0 5.616-.855 7.892-2.327l6.186 6.187a3.059 3.059 0 0 0 2.178.902c.822 0 1.595-.32 2.177-.902 1.2-1.2 1.2-3.154 0-4.354zm-18.433-.736c-7.357 0-13.342-5.986-13.342-13.342 0-7.357 5.985-13.343 13.342-13.343s13.342 5.986 13.342 13.343c0 7.356-5.985 13.342-13.342 13.342zm17.562 4.22a1.835 1.835 0 0 1-1.306.541c-.494 0-.958-.192-1.306-.541l-6.04-6.039a14.7 14.7 0 0 0 2.613-2.612l6.04 6.038c.72.72.72 1.893-.001 2.613z"/><path id="path3_fill" d="M10.4 20.966c5.744 0 10.4-4.693 10.4-10.483C20.8 4.693 16.144 0 10.4 0 4.656 0 0 4.693 0 10.483c0 5.79 4.656 10.483 10.4 10.483z"/><path id="path4_fill" d="M3.9 0H.616a.616.616 0 0 0 0 1.232H3.9A.616.616 0 0 0 3.9 0z"/><path id="path5_fill" d="M15.395 1.642h-3.576A2.262 2.262 0 0 0 9.647 0a2.262 2.262 0 0 0-2.171 1.642H.616a.616.616 0 0 0 0 1.232h6.86a2.262 2.262 0 0 0 2.171 1.642 2.261 2.261 0 0 0 2.172-1.642h3.576a.616.616 0 0 0 0-1.232zM9.647 3.284a1.027 1.027 0 0 1 0-2.052 1.027 1.027 0 0 1 0 2.052z"/><path id="path6_fill" d="M3.079 0H.616a.616.616 0 0 0 0 1.232h2.463a.616.616 0 0 0 0-1.232z"/><path id="path7_fill" d="M12.931 1.642H4.43A2.262 2.262 0 0 0 2.258 0 2.26 2.26 0 0 0 0 2.258a2.26 2.26 0 0 0 2.258 2.258A2.261 2.261 0 0 0 4.43 2.874h8.502a.616.616 0 0 0 0-1.232zM2.258 3.284a1.027 1.027 0 0 1 0-2.052 1.027 1.027 0 0 1 0 2.052z"/><path id="path8_fill" d="M2.258 0H.616a.616.616 0 0 0 0 1.232h1.642a.616.616 0 0 0 0-1.232z"/><path id="path9_fill" d="M14.574 1.642H4.43A2.262 2.262 0 0 0 2.258 0 2.26 2.26 0 0 0 0 2.258a2.26 2.26 0 0 0 2.258 2.258A2.262 2.262 0 0 0 4.43 2.874h10.144a.616.616 0 0 0 0-1.232zM2.258 3.284a1.027 1.027 0 0 1 0-2.052 1.027 1.027 0 0 1 0 2.052z"/><path id="path10_fill" d="M10.468 0a3.084 3.084 0 0 0-3.017 2.463H.616a.616.616 0 0 0 0 1.232H7.45a3.084 3.084 0 0 0 3.017 2.463 3.082 3.082 0 0 0 3.08-3.08A3.082 3.082 0 0 0 10.467 0zm0 4.926A1.85 1.85 0 0 1 8.621 3.08a1.85 1.85 0 0 1 1.847-1.847 1.85 1.85 0 0 1 1.848 1.847 1.85 1.85 0 0 1-1.848 1.847z"/></defs></svg>
